.icons/oomox-ad/64x64/mimetypes/text-x-hex.svg

<svg xmlns="http://www.w3.org/2000/svg" width="64" height="64" version="1.1">
 <path style="opacity:0.2" d="M 12.75,5 C 11.2265,5 10,6.2488 10,7.8 v 50.4 c 0,1.55008 1.2265,2.8 2.75,2.8 h 38.5 C 52.7724,61 54,59.75008 54,58.2 V 23 L 40,19 36,5 Z"/>
 <path style="fill:#4f4f4f" d="M 12.75,4 C 11.2265,4 10,5.2488 10,6.8 v 50.4 c 0,1.55008 1.2265,2.8 2.75,2.8 h 38.5 C 52.7724,60 54,58.75008 54,57.2 V 22 L 40,18 36,4 Z"/>
 <path style="opacity:0.5;fill:#ffffff" d="m 17,11 c -0.554,0 -1,0.446 -1,1 v 6 c 0,0.554 0.446,1 1,1 h 4 c 0.554,0 1,-0.446 1,-1 v -6 c 0,-0.554 -0.446,-1 -1,-1 z m 8.5,0 C 25.223,11 25,11.223 25,11.5 v 7 c 0,0.277 0.223,0.5 0.5,0.5 h 1 c 0.277,0 0.5,-0.223 0.5,-0.5 v -7 C 27,11.223 26.777,11 26.5,11 Z m 5,0 C 30.223,11 30,11.223 30,11.5 v 7 c 0,0.277 0.223,0.5 0.5,0.5 h 1 c 0.277,0 0.5,-0.223 0.5,-0.5 v -7 C 32,11.223 31.777,11 31.5,11 Z m 4.5,0 c -0.554,0 -1,0.446 -1,1 v 6 c 0,0.554 0.446,1 1,1 h 4 c 0.554,0 1,-0.446 1,-1 v -6 c 0,-0.554 -0.446,-1 -1,-1 z m -17,2 h 2 v 4 h -2 z m 18,0 h 2 v 4 H 36 Z M 18.5,22 C 18.223,22 18,22.223 18,22.5 v 7 c 0,0.277 0.223,0.5 0.5,0.5 h 1 c 0.277,0 0.5,-0.223 0.5,-0.5 v -7 C 20,22.223 19.777,22 19.5,22 Z m 6.5,0 c -0.554,0 -1,0.446 -1,1 v 6 c 0,0.554 0.446,1 1,1 h 4 c 0.554,0 1,-0.446 1,-1 v -6 c 0,-0.554 -0.446,-1 -1,-1 z m 8.5,0 C 33.223,22 33,22.223 33,22.5 v 7 c 0,0.277 0.223,0.5 0.5,0.5 h 1 c 0.277,0 0.5,-0.223 0.5,-0.5 v -7 C 35,22.223 34.777,22 34.5,22 Z m 5,0 C 38.223,22 38,22.223 38,22.5 v 7 c 0,0.277 0.223,0.5 0.5,0.5 h 1 c 0.277,0 0.5,-0.223 0.5,-0.5 v -7 C 40,22.223 39.777,22 39.5,22 Z m 4.5,0 c -0.554,0 -1,0.446 -1,1 v 6 c 0,0.554 0.446,1 1,1 h 4 c 0.554,0 1,-0.446 1,-1 v -6 c 0,-0.554 -0.446,-1 -1,-1 z m -17,2 h 2 v 4 h -2 z m 18,0 h 2 v 4 h -2 z m -27,9 c -0.554,0 -1,0.446 -1,1 v 6 c 0,0.554 0.446,1 1,1 h 4 c 0.554,0 1,-0.446 1,-1 v -6 c 0,-0.554 -0.446,-1 -1,-1 z m 8,0 c -0.554,0 -1,0.446 -1,1 v 6 c 0,0.554 0.446,1 1,1 h 4 c 0.554,0 1,-0.446 1,-1 v -6 c 0,-0.554 -0.446,-1 -1,-1 z m 8.5,0 C 33.223,33 33,33.223 33,33.5 v 7 c 0,0.277 0.223,0.5 0.5,0.5 h 1 c 0.277,0 0.5,-0.223 0.5,-0.5 v -7 C 35,33.223 34.777,33 34.5,33 Z m 5,0 C 38.223,33 38,33.223 38,33.5 v 7 c 0,0.277 0.223,0.5 0.5,0.5 h 1 c 0.277,0 0.5,-0.223 0.5,-0.5 v -7 C 40,33.223 39.777,33 39.5,33 Z m 4.5,0 c -0.554,0 -1,0.446 -1,1 v 6 c 0,0.554 0.446,1 1,1 h 4 c 0.554,0 1,-0.446 1,-1 v -6 c 0,-0.554 -0.446,-1 -1,-1 z m -25,2 h 2 v 4 h -2 z m 8,0 h 2 v 4 h -2 z m 18,0 h 2 v 4 h -2 z m -27,9 c -0.554,0 -1,0.446 -1,1 v 6 c 0,0.554 0.446,1 1,1 h 4 c 0.554,0 1,-0.446 1,-1 v -6 c 0,-0.554 -0.446,-1 -1,-1 z m 8.5,0 C 25.223,44 25,44.223 25,44.5 v 7 c 0,0.277 0.223,0.5 0.5,0.5 h 1 c 0.277,0 0.5,-0.223 0.5,-0.5 v -7 C 27,44.223 26.777,44 26.5,44 Z m 5,0 C 30.223,44 30,44.223 30,44.5 v 7 c 0,0.277 0.223,0.5 0.5,0.5 h 1 c 0.277,0 0.5,-0.223 0.5,-0.5 v -7 C 32,44.223 31.777,44 31.5,44 Z m 4.5,0 c -0.554,0 -1,0.446 -1,1 v 6 c 0,0.554 0.446,1 1,1 h 4 c 0.554,0 1,-0.446 1,-1 v -6 c 0,-0.554 -0.446,-1 -1,-1 z m 9.5,0 C 44.223,44 44,44.223 44,44.5 v 7 c 0,0.277 0.223,0.5 0.5,0.5 h 1 c 0.277,0 0.5,-0.223 0.5,-0.5 v -7 C 46,44.223 45.777,44 45.5,44 Z M 18,46 h 2 v 4 h -2 z m 18,0 h 2 v 4 h -2 z"/>
 <path style="opacity:0.2" d="M 54,23 36,5 V 20.1875 C 36,21.74675 37.2555,23 38.8125,23 Z"/>
 <path style="fill:#696969" d="M 54,22 36,4 V 19.1875 C 36,20.74675 37.2555,22 38.8125,22 Z"/>
 <path style="opacity:0.1;fill:#ffffff" d="M 12.75 4 C 11.2265 4 10 5.2495812 10 6.8007812 L 10 7.8007812 C 10 6.2495813 11.2265 5 12.75 5 L 36 5 L 36 4 L 12.75 4 z"/>
</svg>

<svg xmlns="http://www.w3.org/2000/svg" width="64" height="64" version="1.1">
 <path style="opacity:0.2" d="m 14.5,7.9999995 c -1.385,0 -2.5,1.115 -2.5,2.5000005 v 45 c 0,1.385 1.115,2.5 2.5,2.5 h 35 C 50.885,58 52,56.885 52,55.5 V 23 L 38.25,21.75 37,7.9999995 Z"/>
 <path fill="#4f4f4f" d="m14.5 7c-1.385 0-2.5 1.115-2.5 2.5v45c0 1.385 1.115 2.5 2.5 2.5h35c1.385 0 2.5-1.115 2.5-2.5v-32.5l-13.75-1.25-1.25-13.75z"/>
 <path style="opacity:0.5;fill:#ffffff" d="M 17 11 C 16.446 11 16 11.446 16 12 L 16 18 C 16 18.554 16.446 19 17 19 L 21 19 C 21.554 19 22 18.554 22 18 L 22 12 C 22 11.446 21.554 11 21 11 L 17 11 z M 25.5 11 C 25.223 11 25 11.223 25 11.5 L 25 18.5 C 25 18.777 25.223 19 25.5 19 L 26.5 19 C 26.777 19 27 18.777 27 18.5 L 27 11.5 C 27 11.223 26.777 11 26.5 11 L 25.5 11 z M 30.5 11 C 30.223 11 30 11.223 30 11.5 L 30 18.5 C 30 18.777 30.223 19 30.5 19 L 31.5 19 C 31.777 19 32 18.777 32 18.5 L 32 11.5 C 32 11.223 31.777 11 31.5 11 L 30.5 11 z M 35 11 C 34.446 11 34 11.446 34 12 L 34 18 C 34 18.554 34.446 19 35 19 L 39 19 C 39.554 19 40 18.554 40 18 L 40 12 C 40 11.446 39.554 11 39 11 L 35 11 z M 18 13 L 20 13 L 20 17 L 18 17 L 18 13 z M 36 13 L 38 13 L 38 17 L 36 17 L 36 13 z M 18.5 22 C 18.223 22 18 22.223 18 22.5 L 18 29.5 C 18 29.777 18.223 30 18.5 30 L 19.5 30 C 19.777 30 20 29.777 20 29.5 L 20 22.5 C 20 22.223 19.777 22 19.5 22 L 18.5 22 z M 25 22 C 24.446 22 24 22.446 24 23 L 24 29 C 24 29.554 24.446 30 25 30 L 29 30 C 29.554 30 30 29.554 30 29 L 30 23 C 30 22.446 29.554 22 29 22 L 25 22 z M 33.5 22 C 33.223 22 33 22.223 33 22.5 L 33 29.5 C 33 29.777 33.223 30 33.5 30 L 34.5 30 C 34.777 30 35 29.777 35 29.5 L 35 22.5 C 35 22.223 34.777 22 34.5 22 L 33.5 22 z M 38.5 22 C 38.223 22 38 22.223 38 22.5 L 38 29.5 C 38 29.777 38.223 30 38.5 30 L 39.5 30 C 39.777 30 40 29.777 40 29.5 L 40 22.5 C 40 22.223 39.777 22 39.5 22 L 38.5 22 z M 43 22 C 42.446 22 42 22.446 42 23 L 42 29 C 42 29.554 42.446 30 43 30 L 47 30 C 47.554 30 48 29.554 48 29 L 48 23 C 48 22.446 47.554 22 47 22 L 43 22 z M 26 24 L 28 24 L 28 28 L 26 28 L 26 24 z M 44 24 L 46 24 L 46 28 L 44 28 L 44 24 z M 17 33 C 16.446 33 16 33.446 16 34 L 16 40 C 16 40.554 16.446 41 17 41 L 21 41 C 21.554 41 22 40.554 22 40 L 22 34 C 22 33.446 21.554 33 21 33 L 17 33 z M 25 33 C 24.446 33 24 33.446 24 34 L 24 40 C 24 40.554 24.446 41 25 41 L 29 41 C 29.554 41 30 40.554 30 40 L 30 34 C 30 33.446 29.554 33 29 33 L 25 33 z M 33.5 33 C 33.223 33 33 33.223 33 33.5 L 33 40.5 C 33 40.777 33.223 41 33.5 41 L 34.5 41 C 34.777 41 35 40.777 35 40.5 L 35 33.5 C 35 33.223 34.777 33 34.5 33 L 33.5 33 z M 38.5 33 C 38.223 33 38 33.223 38 33.5 L 38 40.5 C 38 40.777 38.223 41 38.5 41 L 39.5 41 C 39.777 41 40 40.777 40 40.5 L 40 33.5 C 40 33.223 39.777 33 39.5 33 L 38.5 33 z M 43 33 C 42.446 33 42 33.446 42 34 L 42 40 C 42 40.554 42.446 41 43 41 L 47 41 C 47.554 41 48 40.554 48 40 L 48 34 C 48 33.446 47.554 33 47 33 L 43 33 z M 18 35 L 20 35 L 20 39 L 18 39 L 18 35 z M 26 35 L 28 35 L 28 39 L 26 39 L 26 35 z M 44 35 L 46 35 L 46 39 L 44 39 L 44 35 z M 17 44 C 16.446 44 16 44.446 16 45 L 16 51 C 16 51.554 16.446 52 17 52 L 21 52 C 21.554 52 22 51.554 22 51 L 22 45 C 22 44.446 21.554 44 21 44 L 17 44 z M 25.5 44 C 25.223 44 25 44.223 25 44.5 L 25 51.5 C 25 51.777 25.223 52 25.5 52 L 26.5 52 C 26.777 52 27 51.777 27 51.5 L 27 44.5 C 27 44.223 26.777 44 26.5 44 L 25.5 44 z M 30.5 44 C 30.223 44 30 44.223 30 44.5 L 30 51.5 C 30 51.777 30.223 52 30.5 52 L 31.5 52 C 31.777 52 32 51.777 32 51.5 L 32 44.5 C 32 44.223 31.777 44 31.5 44 L 30.5 44 z M 35 44 C 34.446 44 34 44.446 34 45 L 34 51 C 34 51.554 34.446 52 35 52 L 39 52 C 39.554 52 40 51.554 40 51 L 40 45 C 40 44.446 39.554 44 39 44 L 35 44 z M 44.5 44 C 44.223 44 44 44.223 44 44.5 L 44 51.5 C 44 51.777 44.223 52 44.5 52 L 45.5 52 C 45.777 52 46 51.777 46 51.5 L 46 44.5 C 46 44.223 45.777 44 45.5 44 L 44.5 44 z M 18 46 L 20 46 L 20 50 L 18 50 L 18 46 z M 36 46 L 38 46 L 38 50 L 36 50 L 36 46 z"/>
 <path style="opacity:0.2" d="M 37,7.9999995 V 20.5 c 0,1.3808 1.1193,2.5 2.5,2.5 H 52 Z"/>
 <path fill="#696969" d="m37 7v12.5c0 1.3808 1.1193 2.5 2.5 2.5h12.5l-15-15z"/>
 <path style="opacity:0.1;fill:#ffffff" d="m 14.5,6.9999995 c -1.385,0 -2.5,1.115 -2.5,2.5 V 10.5 C 12,9.1149995 13.115,7.9999995 14.5,7.9999995 H 37 c 0,-1 0,0 0,-1 z"/>
</svg>
